src/Diamond/symbolic/status/network-wireless-signal-none-symbolic.svg

<?xml version="1.0" encoding="UTF-8" standalone="no"?>
<!-- Created with Inkscape (http://www.inkscape.org/) -->

<svg
   width="16"
   height="16"
   viewBox="0 0 16 16"
   version="1.1"
   id="svg5"
   inkscape:version="1.2.2 (1:1.2.2+202305151914+b0a8486541)"
   sodipodi:docname="network-wireless-signal-none-symbolic.svg"
   xmlns:inkscape="http://www.inkscape.org/namespaces/inkscape"
   xmlns:sodipodi="http://sodipodi.sourceforge.net/DTD/sodipodi-0.dtd"
   xmlns="http://www.w3.org/2000/svg"
   xmlns:svg="http://www.w3.org/2000/svg">
  <sodipodi:namedview
     id="namedview7"
     pagecolor="#ffffff"
     bordercolor="#000000"
     borderopacity="0.25"
     inkscape:showpageshadow="2"
     inkscape:pageopacity="0.0"
     inkscape:pagecheckerboard="0"
     inkscape:deskcolor="#d1d1d1"
     inkscape:document-units="px"
     showgrid="false"
     inkscape:zoom="51.5625"
     inkscape:cx="8.009697"
     inkscape:cy="7.990303"
     inkscape:window-width="1920"
     inkscape:window-height="1008"
     inkscape:window-x="0"
     inkscape:window-y="0"
     inkscape:window-maximized="1"
     inkscape:current-layer="svg5"
     showguides="false" />
  <defs
     id="defs2" />
  <path
     id="path840"
     style="fill:#4d4d4d;fill-opacity:1;stroke-width:2.25;stroke-linecap:round;stroke-linejoin:round;opacity:0.2"
     d="M 8 2.0058594 C 5.4386934 2.0058595 2.8781135 2.9812614 0.9296875 4.9296875 C 0.53926478 5.3201937 0.53926478 5.9532438 0.9296875 6.34375 C 1.3201937 6.7341728 1.9532438 6.7341728 2.34375 6.34375 C 5.4763072 3.2111927 10.523692 3.2111929 13.65625 6.34375 C 14.046757 6.7341725 14.679807 6.7341725 15.070312 6.34375 C 15.460736 5.9532438 15.460736 5.3201937 15.070312 4.9296875 C 13.121886 2.9812615 10.561305 2.0058593 8 2.0058594 z M 8 6.0058594 C 6.4623783 6.0058594 4.9251929 6.5904321 3.7578125 7.7578125 C 3.3673897 8.1483187 3.3673897 8.7813688 3.7578125 9.171875 C 4.1483187 9.5622978 4.7813688 9.5622978 5.171875 9.171875 C 6.7423412 7.6014088 9.2576587 7.6014089 10.828125 9.171875 C 11.218632 9.5622981 11.851681 9.5622981 12.242188 9.171875 C 12.63261 8.7813688 12.63261 8.1483187 12.242188 7.7578125 C 11.074806 6.5904322 9.5376217 6.0058593 8 6.0058594 z M 8 10 C 7.1715737 10 6.5 10.671574 6.5 11.5 C 6.5 12.328426 7.1715737 13 8 13 C 8.8284263 13 9.5 12.328426 9.5 11.5 C 9.5 10.671574 8.8284263 10 8 10 z " />
  <path
     id="path1463"
     style="opacity:1;fill:#4d4d4d;fill-opacity:1;stroke:none;stroke-width:2;stroke-linecap:round;stroke-linejoin:round;stroke-dasharray:none;stroke-opacity:1"
     d="m 14,7 c -0.553999,0 -1,0.4460006 -1,1 v 3 c 0,0.553999 0.446001,1 1,1 0.553999,0 1,-0.446001 1,-1 V 8 C 15,7.4460006 14.553999,7 14,7 Z m 0,6 c -0.552285,0 -1,0.447715 -1,1 0,0.552285 0.447715,1 1,1 0.552285,0 1,-0.447715 1,-1 0,-0.552285 -0.447715,-1 -1,-1 z"
     sodipodi:nodetypes="ssssssssssss" />
</svg>

<?xml version="1.0" encoding="UTF-8" standalone="no"?>
<!-- Created with Inkscape (http://www.inkscape.org/) -->

<svg
   width="16"
   height="16"
   viewBox="0 0 16 16"
   version="1.1"
   id="svg5"
   inkscape:version="1.2.1 (1:1.2.1+202210291243+9c6d41e410)"
   sodipodi:docname="network-wireless-signal-none-symbolic.svg"
   xmlns:inkscape="http://www.inkscape.org/namespaces/inkscape"
   xmlns:sodipodi="http://sodipodi.sourceforge.net/DTD/sodipodi-0.dtd"
   xmlns="http://www.w3.org/2000/svg"
   xmlns:svg="http://www.w3.org/2000/svg">
  <sodipodi:namedview
     id="namedview7"
     pagecolor="#ffffff"
     bordercolor="#000000"
     borderopacity="0.25"
     inkscape:showpageshadow="2"
     inkscape:pageopacity="0.0"
     inkscape:pagecheckerboard="0"
     inkscape:deskcolor="#d1d1d1"
     inkscape:document-units="px"
     showgrid="false"
     inkscape:zoom="51.5625"
     inkscape:cx="7.990303"
     inkscape:cy="8"
     inkscape:window-width="1920"
     inkscape:window-height="1018"
     inkscape:window-x="0"
     inkscape:window-y="28"
     inkscape:window-maximized="1"
     inkscape:current-layer="svg5"
     showguides="false" />
  <defs
     id="defs2" />
  <path
     id="path840"
     style="fill:#4d4d4d;fill-opacity:1;stroke-width:2.25;stroke-linecap:round;stroke-linejoin:round;opacity:0.2"
     d="M 8 2.0058594 C 5.4386934 2.0058595 2.8781135 2.9812614 0.9296875 4.9296875 C 0.53926478 5.3201937 0.53926478 5.9532438 0.9296875 6.34375 C 1.3201937 6.7341728 1.9532438 6.7341728 2.34375 6.34375 C 5.4763072 3.2111927 10.523692 3.2111929 13.65625 6.34375 C 14.046757 6.7341725 14.679807 6.7341725 15.070312 6.34375 C 15.460736 5.9532438 15.460736 5.3201937 15.070312 4.9296875 C 13.121886 2.9812615 10.561305 2.0058593 8 2.0058594 z M 8 6.0058594 C 6.4623783 6.0058594 4.9251929 6.5904321 3.7578125 7.7578125 C 3.3673897 8.1483187 3.3673897 8.7813688 3.7578125 9.171875 C 4.1483187 9.5622978 4.7813688 9.5622978 5.171875 9.171875 C 6.7423412 7.6014088 9.2576587 7.6014089 10.828125 9.171875 C 11.218632 9.5622981 11.851681 9.5622981 12.242188 9.171875 C 12.63261 8.7813688 12.63261 8.1483187 12.242188 7.7578125 C 11.074806 6.5904322 9.5376217 6.0058593 8 6.0058594 z M 8 10 C 7.1715737 10 6.5 10.671574 6.5 11.5 C 6.5 12.328426 7.1715737 13 8 13 C 8.8284263 13 9.5 12.328426 9.5 11.5 C 9.5 10.671574 8.8284263 10 8 10 z " />
  <path
     id="path1463"
     style="opacity:1;fill:#4d4d4d;fill-opacity:1;stroke:none;stroke-width:2;stroke-linecap:round;stroke-linejoin:round;stroke-dasharray:none;stroke-opacity:1"
     d="M 14 7 C 13.446001 7 13 7.4460006 13 8 L 13 11 C 13 11.553999 13.446001 12 14 12 C 14.553999 12 15 11.553999 15 11 L 15 8 C 15 7.4460006 14.553999 7 14 7 z M 14 13.011719 A 1 1 0 0 0 13 14.011719 A 1 1 0 0 0 14 15.011719 A 1 1 0 0 0 15 14.011719 A 1 1 0 0 0 14 13.011719 z " />
</svg>
